X:1
T:Niedersachsen, 98.98 D
T:Niedersachsen, 98.98 D
T:A. T. Gorham, 19th Century
T:Public Domain Courtesy of the Cyber Hymnal™
C:A. T. Gorham, 19th Century
Z:Public Domain
Z:Courtesy of the Cyber Hymnal™
%%score ( 1 2 ) ( 3 4 )
L:1/8
Q:1/4=88
M:6/8
K:G
V:1 treble 
V:2 treble 
V:3 bass 
V:4 bass 
V:1
 [B,D] | [DG]>[DA][GB] [CE]>[DF][EG] | D [DG]3 z [DG] | [GB]>[Ac][Bd] [FA]>[GB][Ac] | %4
 [GB]4 z [B,D] | [DG]>[DA][GB] [CE]>[DF][EG] | D [DG]3 z [GB] | [Gc]>[Gd][Ge] [Gd]>[Ac][FA] | %8
 G4 z [FA] | [FA]>[EG][DF] [GB]>[FA][EG] | [DF] [Fd]3 z [Fd] | [G^c]>[GB][GA] [GB]>[FA][EG] | %12
 [DF]4 z [DF]/[EG]/ | [FA]>[EG][DF] [GB]>[FA][EG] | [DF] [Fd]3 z [Ad] | %15
 [G^c]>[GB][GA] [EG]>[DF][^CE] | D4 z2 |] %17
V:2
 x | x6 | D x5 | x6 | x6 | x6 | D x5 | x6 | G4 x2 | x6 | x6 | x6 | x6 | x6 | x6 | x6 | D4 x2 |] %17
V:3
 G, | [G,B,]>[G,C][G,D] [C,C]>[C,G,][C,C] | [G,B,] [G,B,]3 z [G,B,] | %3
 [G,D]>[G,D][G,D] [D,D]>[D,D][D,D] | [G,D]4 z G, | [G,B,]>[G,C][G,D] [C,C]>[C,G,][C,C] | %6
 [G,B,] [G,B,]3 z [G,D] | [C,E]>[C,D][C,C] [D,B,]>[D,D][D,C] | [G,,B,]4 z [D,A,] | %9
 [D,A,]>[D,A,][D,A,] [D,A,]>[D,A,][D,A,] | [D,A,] [D,A,]3 z [D,A,] | %11
 [A,,A,]>[A,,A,][A,,A,] [A,,A,]>[A,,A,][A,,A,] | [D,A,]4 z [D,A,]/[D,A,]/ | %13
 [D,A,]>[D,A,][D,A,] [D,A,]>[D,A,][D,A,] | [D,A,] [D,A,]3 z [F,A,] | %15
 A,>A,A, [A,,A,]>[A,,A,][A,,A,] | [D,F,]4 z2 |] %17
V:4
 G, | x6 | x6 | x6 | x5 G, | x6 | x6 | x6 | x6 | x6 | x6 | x6 | x6 | x6 | x6 | A,>A,A, x3 | x6 |] %17

